X:1
T:Romanzen und Balladen IV für gemischten Chor
T:Brautgesang
T:Robert Schumann
T:Ludwig Uhland
T:Brautgesang
T:Nr. 1 aus Romanzen und Balladen IV, Op. 146
T:CPDL - Creative Commons Attribution Non Commercial 3.0
T:CPDL - Creative Commons Attribution Non Commercial 3.0
T:CPDL - Creative Commons Attribution Non Commercial 3.0
T:CPDL - Creative Commons Attribution Non Commercial 3.0
T:CPDL - Creative Commons Attribution Non Commercial 3.0
T:CPDL - Creative Commons Attribution Non Commercial 3.0
T:CPDL - Creative Commons Attribution Non Commercial 3.0
T:CPDL - Creative Commons Attribution Non Commercial 3.0
C:Robert Schumann
Z:Ludwig Uhland
Z:CPDL - Creative Commons Attribution Non Commercial 3.0
%%score [ 1 2 ( 3 4 ) ( 5 6 ) ]
L:1/8
Q:1/4=120
M:4/4
K:G
V:1 treble nm="Sopran"
V:2 treble nm="Alt"
V:3 treble-8 nm="Tenor"
V:4 treble-8 
V:5 bass nm="Bass"
V:6 bass 
V:1
"^Frisch"!f! D2 | d2 ee e2 dG | G2 F2 B2 BB | d3 A A2 BB | d2 GF A2!f! D2 | d2 ee e2 dG | %6
w: Das|Haus be- ne- dei' ich und|preis' es laut, das emp-|fan- gen hat ei- ne|lieb- li- che Braut; das|Haus be- ne- dei' ich und|
 G2 F2 B2 BB | d3 A A2 BB | E2 EE D2 D2 | A3 A A2 GA | B4 D2 D2 | d2 ee e2 dd | G2 ^F2 B2 G2 | %13
w: preis' es laut, das emp-|fan- gen hat ei- ne|lieb- li- che Braut; zum|Gar- ten muss es er-|blü- hen, das|Haus be- ne- dei' ich und|preis' es laut, zum|
 d3 d d2 cd | e4 G2 z2 | z8 | z4 z2 D2 | d3 e e2 dB | B4 A2 z2 | z8 | z8 | z4 D3 D | A3 D D4 | %23
w: Gar- ten muss es er-|blü- hen,||zum|Gar- ten muss es er-|blü- hen!|||Aus dem|Braut- ge- mach|
 G2 DG c2 de | d2 z2 z4 | z4 z2 ^c2 | d3 d d4 | B2 ^cd e4 | d2 z2 z4 | z4 z2 B2 | =c2 A2 e2 AA | %31
w: tritt ei- ne herr- li- che|Sonn',|wie|Nach- ti- gall'n|lo- cket die Flö-|te,|die|Ti- sche wu- chern wie|
 (A2 B2) c2 cc | d2 dd c=f ed | G2 _BB A2 AA | _B2 BB A2 A2 | ^G2 GG!>(! =G2 F2!>)! | %36
w: Bee- * te, und es|sprin- get des Wei- * nes _|gol- de- ner Bronn, und es|sprin- get des Wei- nes|gol- de- ner Bronn. Die|
!p! B2 BB c2 cc | B2 BB _BB z B/B/ | =B2 BB cccc | B2 B2 _B2 B2 | =B2 GG B2 GG | B2 G!p!G d2 BB | %42
w: Frau- en er- glü- hen zu|Li- lien und Ro- sen, wie die|Lüf- te, die lo- sen, die~ durch|Blu- men zie- hen,|rau- schet das Küs- sen und|Ko- sen, das Küs- sen und|
 G2 DD B2 GG | D2 B, z z4 | z8 | z2 z!<(! A A2 A2!<)! |!f! B2 z2 z4 | z4 z2 z!f! A | d2 ee e2 dG | %49
w: Ko- sen, das Küs- sen und|Ko- sen,||und preis' es|laut,|das|Haus be- ne- dei' ich und|
 G2 F2 A2 AA | d3 A A2 AA | d2 AA A2 D2 | d2 ee e2 dG | G2 F2 B2 GG | e3 G G2 dd | c2 BB A2 =G2 | %56
w: preis' es laut, das emp-|fan- gen hat ei- ne|lieb- li- che Braut, das|Haus be- ne- dei' ich und|preis' es laut, das emp-|fan- gen hat ei- ne|lieb- li- che Braut; zum|
 d3 B GBde | e4 A2 d2 | g2 ^cc d4- | d2 F2 F2 GA | c4 B2 G2 | c2 ee d2 GG | G2 F2 B2 BB | %63
w: Gar- ten muss _ es er-|blü- hen, zum|Gar- ten, zum Gar-|* ten muss es er-|blü- hen, das|Haus be- ne- dei' ich und|preis' es laut, das emp-|
 e3 A A4- | A2 cc B2 AA | G2 z2 z4 | z8 | z2!f! d2 g4- | g8 | B4 z4 |] %70
w: fan- gen hat|_ ei- ne lieb- li- che|Braut;||zum Gar-||ten!|
V:2
!f! D2 | B2 cc c2 BE | E2 D2 G2 GG | D3 F F2 GG | B2 EE D2!f! D2 | G2 GG G2 GG | G2 D2 D2 DD | %7
w: |||||||
 F3 D D2 DD | ^C2 CC D2 D2 | F3 F F2 GF | G4 D2 D2 | =F2 FF F2 FF | E2 D2 D2 G2 | B3 B B2 AB | %14
w: |||||||
 c4 E2 z2 | z8 | z4 z2 D2 | G3 G G2 GG | G4 F2!f! DD | A3 D D4 | D2 B,D G2 AB | c4 C3 C | C3 C C4 | %23
w: ||||* * Aus dem|Braut- ge- mach|tritt ei- ne herr- li- che|Sonn', * *||
 B,2 GG E2 GG | G2 z2 z4 | z4 z2 A2 | A3 A A4 | G2 GG G4 | F2 z2 z4 | z4 z2 ^G2 | A2 A2 A2 AA | %31
w: ||||||||
 (A2 ^G2) A2 AA | _B2 BB A2 A2 | G2 GG =F2 CC | D2 DD C2 D2 | E2 EE!>(! E2 D2!>)! | %36
w: |||||
!p! D2 DD E2 _EE | D2 DD ^CC z C/C/ | D2 DD EE_EE | D2 D2 ^C2 C2 | D2 ^CC D2 CC | D2 B,2 z4 | %42
w: ||||||
 z2 z!p! D B2 GG | D2 B,B, G2 DD |"^Ko - sen," B,2 G,2 z4 | z2 z!<(! G G2 G2!<)! |!f! G2 z2 z4 | %47
w: das Küs- sen und|Ko- sen, das Küs- sen und||||
 z4 z2 z!f! A | G2 GG G2 G^C | ^C2 C2 D2 FF | F3 F F2 FF | F2 FF F2 D2 | =F2 FF F2 FE | %53
w: ||||||
 E2 _E2 D2 GG | G3 E E2 GG | G2 ^GG A2 E2 | D3 D D2 =GG | F4 F2 F2 | G2 EE F4- | F2 D2 D2 DD | %60
w: |||||||
 G4 G2 G2 | G2 GG G2 GG | A,2 D2 ^D2 EE | ^G3 E E4- | E2 EE F2 FF | G2 z2 z4 | z8 | z2!f! d2 B4- | %68
w: ||||||||
 B8 | D4 z4 |] %70
w: ||
V:3
 z2 | z8 | z8 | z8 | z4 z2!f! D2 | B2 cc c2 BB | B2 c2 B2 BB | A3 A A2 GG | A2 AA F2 D2 | %9
w: ||||Das|Haus be- ne- dei' ich und|preis' es laut, das emp-|fan- gen hat ei- ne|lieb- li- che Braut; zum|
 =c3 c c2 Bc | B4 B2 D2 | G2 BB B2 BB | c2 c2 G2 z2 | z8 | z4 z2 G2 | g2 aa a2 gg | c2 B2 e2 D2 | %17
w: Gar- ten muss es er-|blü- hen, das|Haus be- ne- dei' ich und|preis' es laut,||das|Haus be- ne- dei' ich und|preis' es laut, zum|
 B3 c c2 BB | d4 d2 z2 | z8 | z8 | z4 F3 F | F3 F F4 | G2 BB c2 cc | B2!f! d2 g>d d2 | %25
w: Gar- ten muss es er-|blü- hen!|||Aus dem|Braut- ge- mach|tritt ei- ne herr- li- che|Sonn', wie Nach- ti- gall'n|
 B2 AG f2 e2 | z8 | d2 BB ^c4 | A2 z2 z4 | z4 z2 e2 | e2 c2 c2 cc | (c2 B2) A2 =ff | =f2 ff f2 f2 | %33
w: lo- cket die Flö- te,||lo- cket die Flö-|te,|die|Ti- sche wu- chern wie|Bee- * te, und es|sprin- get des Wei- nes|
 =f2 ee f2 =FF | =F2 FF F2 A2 | B2 BB!>(! A2 A2!>)! |!p! G2 GG G2 GG | G2 GG GG z G/G/ | %38
w: gol- de- ner Bronn, und es|sprin- get des Wei- nes|gol- de- ner Bronn. Die|Frau- en er- glü- hen zu|Li- lien und Ro- sen, wie die|
 G2 GG GGGG | G2 G2 G2 G2 | G2 GG G2 GG | G2 G2 z4 | z8 | z2 z!p! B g2 dd | B2 G2 z4 | %45
w: Lüf- te, die lo- sen, die durch|Blu- men zie- hen,|rau- schet das Küs- sen und|Ko- sen,||das Küs- sen und|Ko- sen,|
 z2 z!<(! A A2 A2!<)! |!f! G2 z2 z4 | z4 z2 z!f! A | B2 cc c2 BA | A2 A2 F2 AA | A3 A A2 AA | %51
w: und preis' es|laut,|das|Haus be- ne- dei' ich und|preis' es laut, das emp-|fan- gen hat ei- ne|
 A2 AA A2 D2 | B2 BB B2 Bc | c2 A2 G2 GG | G3 G G2 =ff | e2 dd c2 A2 | B3 B B2 B^c | =c4 c2 d2 | %58
w: lieb- li- che Braut, das|Haus be- ne- dei' ich und|preis' es laut, das emp-|fan- gen hat ei- ne|lieb- li- che Braut; zum|Gar- ten muss es er-|blü- hen, zum|
 d2 ^cc =c4- | c2 c2 c2 cc | d4 d2 B2 | c2 cc d2 ^cc | d2 A2 B2 =dd | B3 c c4- | c2 cc d2 cc | %65
w: Gar- ten, zum Gar-|* ten muss es er-|blü- hen, das|Haus be- ne- dei' ich und|preis' es laut, das emp-|fan- gen hat|_ ei- ne lieb- li- che|
 B2"^Solo"!f! d2 g4- | g2 d2 B2 cd | d8- | d8 | G4 z4 |] %70
w: Braut; zum Gar-|* ten muss es er-|blü-||hen!|
V:4
 x2 | x8 | x8 | x8 | x8 | x8 | x8 | x8 | x8 | x8 | x8 | x8 | x8 | x8 | x8 | e2 =ff f2 ee | %16
w: ||||||||||||||||
 c2 B2 c2 x2 | x8 | x8 | x8 | x8 | x8 | x8 | x8 | x8 | x8 | x8 | x8 | x8 | x8 | x8 | x8 | x8 | x8 | %34
w: ||||||||||||||||||
 x8 | x8 | x8 | x8 | x8 | x8 | x8 | x8 | x8 | x8 | x8 | x8 | x8 | x8 | x8 | x8 | x8 | x8 | x8 | %53
w: |||||||||||||||||||
 x8 | x8 | x8 | x8 | x8 | x8 | x8 | x8 | x8 | x8 | x8 | x8 | x8 | x8 | z2"^Chor"!f! d2 d4- | d8 | %69
w: ||||||||||||||zum Gar-||
 d4 x4 |] %70
w: ten!|
V:5
 z2 | z8 | z8 | z8 | z4 z2!f! D,2 | G,2 G,G, G,2 G,E, | E,2 D,2 G,2 G,G, | D,3 F, F,2 G,G, | %8
w: ||||||||
 A,2 A,A, D,2 D,2 | D,3 D, D,2 D,D, | D,4 D,2 D,2 | G,,2 G,G, G,2 G,,G,, | C,2 D,2 G,2 z2 | z8 | %14
w: ||||||
 z4 z2 G,2 | C,2 CC C2 CC | A,2 G,2 C,2 D,2 | G,3 G, G,2 G,G, | D,4 D,2 z2 | z8 | z8 | z4 D,3 D, | %22
w: ||||||||
 D,3 D, D,4 | G,,2 G,G, C,2 C,C, | G,2 z2 z4 | z4 z2 G,2 | F,3 F, F,4 | G,2 G,G, A,,4 | %28
w: |||wie|Nach- ti- gall'n|lo- cket die Flö-|
 D,2!f! D,2 =F,2 D,2 | A,2 D,D, D,2 E,E, | A,2 A,2 C2 A,A, | (A,2 E,2) A,,2 z2 | z8 | z4 z2 =F,F, | %34
w: te, die Ti- sche|wu- chern wie Bee- te, die|||||
 _B,,2 B,,B,, =F,2 F,2 | E,2 E,E,!>(! ^C,2 D,2!>)! |!p! G,,2 G,,G,, G,,2 G,,G,, | %37
w: |||
 G,,2 G,,G,, _E,E, z E,/E,/ | D,2 D,D, C,C,C,C, | D,2 D,2 _E,2 E,2 | D,2 =E,E, D,2 _E,E, | %41
w: ||||
 D,2 D,2 z4 | z8 | z8 | z2 z!p! G, G,2 F,E, | D,2 ^C,!<(!C, C,2 C,2!<)! |!f! D,2 G,G, (G,2 F,)E, | %47
w: |||das Haus be- ne-|dei' ich und preis' es|laut, das emp- fan- * gen|
 D,2 ^C,C, C,2 C,C, | D,6 z D, | D,2 D,2 D,2 D,D, | A,,3 D, D,2 D,D, | A,,2 D,D, D,2 D,2 | %52
w: hat ei- ne lieb- li- che|Braut; und|preis' es laut, * *|||
 G,2 G,G, G,2 G,C, | C,2 C,2 G,,2 G,G, | C,3 C, C,2 C,C, | C,2 C,C, C,2 ^C,2 | D,3 D, D,2 B,_B, | %57
w: |||||
 A,4 A,2 C2 | B,2 _B,B, A,4- | A,2 A,2 A,2 G,F, | =F,4 F,2 F,2 | E,2 C,C, B,,2 E,E, | %62
w: |||||
 D,2 =C,2 B,,2 ^G,G, | A,3 A, A,4- | A,2 A,,A,, D,2 D,D, | G,2 z2 z4 | z8 | z2!f! D2 G,4- | G,8 | %69
w: |||||||
 G,4 z4 |] %70
w: |
V:6
 x2 | x8 | x8 | x8 | x8 | x8 | x8 | x8 | x8 | x8 | x8 | x8 | x8 | x8 | x8 | x8 | x8 | x8 | x8 | %19
 x8 | x8 | x8 | x8 | x8 | x8 | x8 | x8 | x8 | x8 | x8 | x8 | x8 | x8 | x8 | x8 | x8 | x8 | x8 | %38
 x8 | x8 | x8 | x8 | x8 | x8 | x8 | x8 | x8 | x8 | x8 | x8 | x8 | x8 | x8 | x8 | x8 | x8 | %56
 x6 D,D, | D,4 D,2 D,2 | D,2 D,D, D,4- | D,2 x2 x4 | x8 | x8 | x8 | x8 | x8 | x8 | x8 | x8 | x8 | %69
 x8 |] %70

